X: 066
T: Yonkers Piper (reel) 
N: 250066
C: BB
N: revised version 12/06
R: reel
Q: 1/8=360
M: 4/4
L: 1/8
K: G
A|"G"Bded BGGB|"Em"edBA "C"GEEG|"G"gede "Am7"gaba|"G"gfgd "D"cAFA |
"G"BGdG "G"BG (3GFG|"Em"edBA "C"GEEC|"G"DEGD "Em"EGAB|"D7"(3cBA FA "G"G3 :|
A|"G"degd "Em"egde|"Am"a^gab "D7"afdc|"G"Bdgd "Em"e2 dB|"G"GABG "D"ADFA |
"G"dB"Am"cA "Em7"Bdeg|"Am"a^gab "D"afdf|"G"g2 dc "Em"BcdB|"D"ADFA "G"G3 :|
%%%%%%%%%%%%%%%%%%%%%%%%%%%%%%%%%%%%%%%%%%%
